X:125
T:Spoot o' Skerry
C:Samuel Ian Rothmar
R:Reel
M:C
%%printtempo 0
Q:180
K:G
uDE|\
"G"G2 (DE) GDEG| DEGA "D7"B2 (AB)|"G" G2 (DE) "Em"GABd|"Am7"eged B2 (AB)|
"G"G2 (DE) "D7/A"GDEG| "G/B"DEGA "Em"B2 (AB)|"G"g2 (ed) "D7"edBA|"G"B2 "C"G2 "G"G2::
(ef)|\
"Em"g2 (ed) ed B2|"G7" (BA) BG "C"E2DE|"G" GABd "Em"eged|"Am" B2 A2 "D7"A2 [1 (EF)|
"Em"g2 (ed) ed B2|"G7" (BA) BG "C"E2DE|"G/D" GABd "D"eged|"G" B2 "C"G2 "G"G2:|
[2(DE)|\
"G"G2 (DE) "D7/A"GDEG|"G/B"DEGA "Em"B2 AB|"Am7"g2 (ed) "D7"edBA|"G"B2 "C"G2 "G"G2|]
